X:4
T:Mrs. Garden (of Troup's) Strathspey
C:Robert Petrie
S:Petrie's Second Collection of Strathspey Reels and Country Dances &c.
Z:Steve Wyrick , 6/5/04
N:Petrie's Second Collection, page 2
L:1/8
M:C
R:Strathspey
K:F
C|F>GFd cFdF|ECCF E/F/G/E/ CE  |F>GFd cFAf|c>f a/g/f/e/ f2f:|
c|fcac  bcac|Af b/a/g/f/ egga  |fcac  bcac|Af  a/g/f/e/ f2fc|
  fcac  bcac|Af b/a/g/f/ e(gga)|dBdf  cAcf|Af  a/g/f/e/ f2f|]
